brandFactory_export/3.Masa/Noticias_3Masa.svg

<?xml version="1.0" encoding="UTF-8"?>
<svg width="24px" height="24px" viewBox="0 0 24 24" version="1.1" xmlns="http://www.w3.org/2000/svg" xmlns:xlink="http://www.w3.org/1999/xlink">
    <title>3.Masa/Noticias_3Masa</title>
    <g id="Symbols" stroke="none" stroke-width="1" fill="none" fill-rule="evenodd">
        <g id="3.Masa/Noticias_3Masa" fill="#5CB615" fill-rule="nonzero">
            <path d="M17.287395,4.21176471 C17.589916,4.4302521 17.7680672,4.78319328 17.7680672,5.15630252 L17.7680672,18.5781513 C17.7680672,18.9512605 17.589916,19.3042017 17.287395,19.5226891 C17.0957983,19.6571429 16.8705882,19.7310924 16.6386555,19.7310924 C16.5310924,19.7310924 16.4201681,19.7142857 16.3193277,19.6840336 L9.76516807,17.714517 L9.53277311,18.4571429 C9.45546218,18.7092437 9.28403361,18.9142857 9.0487395,19.0352941 C8.90756303,19.112605 8.75294118,19.1495798 8.59495798,19.1495798 C8.49747899,19.1495798 8.39663866,19.1361345 8.29915966,19.102521 L5.57647059,18.2487395 C5.05882353,18.087395 4.7697479,17.5327731 4.93109244,17.0151261 L5.14716807,16.326517 L1.33109244,15.1798319 C1.33109244,15.5226891 1.03865546,15.7983193 0.675630252,15.7983193 C0.312605042,15.7983193 0.0201680674,15.5226891 0.0201680674,15.1798319 L0.0201680674,8.56806723 C0.0201680674,8.22857143 0.312605042,7.94957983 0.675630252,7.94957983 C1.03363337,7.94957983 1.32298779,8.2176367 1.33092513,8.55387713 L16.3193277,4.05042017 C16.6487395,3.94957983 17.0084034,4.01008403 17.287395,4.21176471 Z M20.8067227,15.989916 L22.6151261,17.7983193 C22.8705882,18.0537815 22.8705882,18.4705882 22.6151261,18.7260504 C22.487395,18.8537815 22.3193277,18.9176471 22.1512605,18.9176471 C21.9831933,18.9176471 21.8151261,18.8537815 21.687395,18.7260504 L19.8789916,16.9176471 C19.6235294,16.6621849 19.6235294,16.2453782 19.8789916,15.989916 C20.1344538,15.7344538 20.5512605,15.7344538 20.8067227,15.989916 Z M6.36638655,16.8302521 L6.28235294,17.0991597 L8.37983193,17.7579832 L8.46386555,17.4890756 L6.36638655,16.8302521 Z M23.0084034,10.897479 C23.3714286,10.897479 23.6638655,11.189916 23.6638655,11.5529412 C23.6638655,11.9159664 23.3714286,12.2084034 23.0084034,12.2084034 L20.3865546,12.2084034 C20.0235294,12.2084034 19.7310924,11.9159664 19.7310924,11.5529412 C19.7310924,11.189916 20.0235294,10.897479 20.3865546,10.897479 L23.0084034,10.897479 Z M22.6252101,4.30252101 C22.8806723,4.55798319 22.8806723,4.97478992 22.6252101,5.2302521 L20.7697479,7.08571429 C20.6420168,7.21344538 20.4739496,7.27731092 20.3058824,7.27731092 C20.1378151,7.27731092 19.9697479,7.21344538 19.8420168,7.08571429 C19.5865546,6.8302521 19.5865546,6.41344538 19.8420168,6.15798319 L21.697479,4.30252101 C21.9529412,4.04705882 22.3697479,4.04705882 22.6252101,4.30252101 Z" id="Noticias_3Masa"></path>
        </g>
    </g>
</svg>

<svg width="24" height="24" viewBox="0 0 24 24" xmlns="http://www.w3.org/2000/svg"><path d="M17.287 4.212c.303.218.481.571.481.944v13.422c0 .373-.178.726-.48.945a1.129 1.129 0 01-.969.161l-6.554-1.97-.232.743a.962.962 0 01-.484.578.938.938 0 01-.75.068l-2.723-.854a.986.986 0 01-.645-1.234l.216-.688-3.816-1.147c0 .343-.292.618-.655.618-.363 0-.656-.275-.656-.618V8.568c0-.34.293-.618.656-.618.358 0 .647.268.655.604L16.319 4.05c.33-.1.69-.04.968.162zm3.52 11.778l1.808 1.808a.657.657 0 01-.464 1.12.654.654 0 01-.464-.192l-1.808-1.808a.657.657 0 010-.928.657.657 0 01.928 0zm-14.44.84l-.085.27 2.098.658.084-.269-2.098-.659zm16.641-5.933c.363 0 .656.293.656.656a.654.654 0 01-.656.655h-2.621a.654.654 0 01-.656-.655c0-.363.293-.656.656-.656h2.621zm-.383-6.594a.657.657 0 010 .927L20.77 7.086a.654.654 0 01-.928 0 .657.657 0 010-.928l1.855-1.855a.657.657 0 01.928 0z" fill="#5CB615" fill-rule="nonzero"/></svg>
